svgs/regular/car-circle-bolt.svg

<svg xmlns="http://www.w3.org/2000/svg" viewBox="0 0 640 512"><!--! Font Awesome Pro 6.3.0 by @fontawesome - https://fontawesome.com License - https://fontawesome.com/license (Commercial License) Copyright 2023 Fonticons, Inc. --><path d="M127.7 106.8L103.4 176H408.6l-24.2-69.2c-5.6-16-20.8-26.8-37.8-26.8H165.4c-17 0-32.1 10.7-37.8 26.8zm-79.6 82L82.3 90.9C94.7 55.6 128 32 165.4 32H346.6c37.4 0 70.7 23.6 83.1 58.9l34.3 97.9c2.6 1.5 5.2 3.2 7.6 4.9c-28.3 3.9-54.4 14.6-76.8 30.3H96c-26.5 0-48 21.5-48 48v80H320.7c-.5 5.3-.7 10.6-.7 16c0 10.9 1 21.6 2.9 32H48v56c0 13.3-10.7 24-24 24s-24-10.7-24-24V400 352 272c0-35.6 19.3-66.6 48.1-83.2zM112 256a32 32 0 1 1 0 64 32 32 0 1 1 0-64zm384-32a144 144 0 1 1 0 288 144 144 0 1 1 0-288zm47.9 63c-4.3-3.7-10.6-4-15.1-.6l-96 72c-4.1 3.1-5.8 8.5-4.2 13.4s6.2 8.2 11.4 8.2h35.6l-30.1 54.2c-2.8 5-1.7 11.1 2.6 14.9s10.6 4 15.1 .6l96-72c4.1-3.1 5.8-8.5 4.2-13.4s-6.2-8.2-11.4-8.2H516.4l30.1-54.2c2.8-5 1.7-11.1-2.6-14.9z"/></svg>

<svg xmlns="http://www.w3.org/2000/svg" viewBox="0 0 640 512"><!--! Font Awesome Pro 6.2.0 by @fontawesome - https://fontawesome.com License - https://fontawesome.com/license (Commercial License) Copyright 2022 Fonticons, Inc. --><path d="M48.1 188.8L82.35 90.93C94.7 55.63 128 32 165.4 32H346.6C383.1 32 417.3 55.63 429.7 90.93L463.9 188.8C466.5 190.3 469.1 191.9 471.5 193.7C443.2 197.6 417.1 208.3 394.8 224H96C69.49 224 48 245.5 48 272V352H320.7C320.2 357.3 320 362.6 320 368C320 378.9 320.1 389.6 322.9 400H48V456C48 469.3 37.25 480 24 480C10.75 480 0 469.3 0 456V272C0 236.4 19.35 205.4 48.1 188.8V188.8zM103.4 176H408.6L384.3 106.8C378.7 90.74 363.6 80 346.6 80H165.4C148.4 80 133.3 90.74 127.7 106.8L103.4 176zM80 288C80 270.3 94.33 256 112 256C129.7 256 144 270.3 144 288C144 305.7 129.7 320 112 320C94.33 320 80 305.7 80 288zM352 368C352 288.5 416.5 224 496 224C575.5 224 640 288.5 640 368C640 447.5 575.5 512 496 512C416.5 512 352 447.5 352 368zM528.8 286.4L432.8 358.4C428.7 361.5 426.1 366.9 428.6 371.8C430.2 376.7 434.8 380 440 380H475.6L445.5 434.2C442.8 439.1 443.8 445.3 448.1 449C452.4 452.8 458.7 452.1 463.2 449.6L559.2 377.6C563.3 374.5 565 369.1 563.4 364.2C561.8 359.3 557.2 356 552 356H516.4L546.5 301.8C549.2 296.9 548.2 290.7 543.9 286.1C539.6 283.2 533.3 283 528.8 286.4V286.4z"/></svg>
